svg/furkot/nps/hiking.svg

<svg height="512" viewBox="0 0 512 512" width="512" xmlns="http://www.w3.org/2000/svg"><path d="m152.4 80.38c22.2 0 40.2-17.92 40.2-40.44 0-22.02-18-39.94-40.2-39.94s-40.3 17.92-40.3 39.94c0 22.52 18.1 40.44 40.3 40.44zm-67.97 6.66c1.54-6.14-2.41-12.29-8.45-13.82l-33.54-8.2c-6.31-1.02-12.49 2.56-13.92 8.71l-28.1756 116.77c-1.5464 6.1 2.2576 12.3 8.4426 13.8l33.653 8.2c6.06 1.5 12.35-2.6 13.78-8.7zm154.77 415.26s-.1 0-.1.5c0 5.1 4.2 9.2 9.3 9.2 4.6 0 8.5-3.6 9.1-8.2l67.6-366.1c0-.5 0-.5 0-1 0-5.1-4.1-9.2-9.2-9.2-4.6 0-8.2 3.6-9.2 8.2zm-224.7-24.1c-.36 1.5-.48 3.6-.48 5.6 0 15.4 12.61 28.2 28.3 28.2 12.82 0 23.68-8.7 27.11-20l48.67-201.7 46.4 200.2c2.9 12.3 14.1 21.5 27.3 21.5 15.7 0 28.3-12.8 28.3-28.2 0-2-.2-4.1-.6-6.1l-63.6-266.2 5.3-23.1 4.2 18.4c3.8 11.8 14.7 12.8 14.7 12.8l65.6 16.9c1.2 0 2.6.6 3.9.6 10.7 0 19.4-8.7 19.4-19.5 0-9.2-6.3-16.9-14.9-18.9l-56.7-14.4-15.6-63c-7.4-35.28-41.2-34.77-41.2-34.77-32.8-.51-40.96 33.77-40.96 33.77z" transform="translate(93.45)"/></svg>

<svg xmlns="http://www.w3.org/2000/svg" version="1.0" width="512" height="512" viewBox="0 0 512 512"><path d="M152.4 80.38C174.6 80.38 192.6 62.46 192.6 39.94 192.6 17.92 174.6 0 152.4 0 130.2 0 112.1 17.92 112.1 39.94 112.1 62.46 130.2 80.38 152.4 80.38zM84.43 87.04C85.97 80.9 82.02 74.75 75.98 73.22L42.44 65.02C36.13 64 29.95 67.58 28.52 73.73L.3444 190.5C-1.202 196.6 2.602 202.8 8.787 204.3L42.44 212.5C48.5 214 54.79 209.9 56.22 203.8L84.43 87.04zM239.2 502.3C239.2 502.3 239.1 502.3 239.1 502.8 239.1 507.9 243.3 512 248.4 512 253 512 256.9 508.4 257.5 503.8L325.1 137.7C325.1 137.2 325.1 137.2 325.1 136.7 325.1 131.6 321 127.5 315.9 127.5 311.3 127.5 307.7 131.1 306.7 135.7L239.2 502.3zM14.5 478.2C14.14 479.7 14.02 481.8 14.02 483.8 14.02 499.2 26.63 512 42.32 512 55.14 512 66 503.3 69.43 492L118.1 290.3 164.5 490.5C167.4 502.8 178.6 512 191.8 512 207.5 512 220.1 499.2 220.1 483.8 220.1 481.8 219.9 479.7 219.5 477.7L155.9 211.5 161.2 188.4 165.4 206.8C169.2 218.6 180.1 219.6 180.1 219.6L245.7 236.5C246.9 236.5 248.3 237.1 249.6 237.1 260.3 237.1 269 228.4 269 217.6 269 208.4 262.7 200.7 254.1 198.7L197.4 184.3 181.8 121.3C174.4 86.02 140.6 86.53 140.6 86.53 107.8 86.02 99.64 120.3 99.64 120.3L14.5 478.2z" transform="translate(93.45,0)"/></svg>
